data/playwrite-pl.svg

<svg width="99.078" height="26.614" viewBox="0 0 99.078 26.614" xmlns="http://www.w3.org/2000/svg"><path transform="translate(0 19.754) scale(.014 -.014)" d="m448 376q-17-1-25.5 10.5t-8.5 27.5 6 26 21 11q65 3 118.5 17t96 39 72 59 45 76 15.5 90q0 47-19.5 82.5t-56.5 59-88.5 35-115.5 11.5q-84 0-154-16t-126.5-48.5-101.5-80.5q-12-14-25.5-16t-28.5 9q-16 13-18 26.5t10 27.5q35 44 82 77t104.5 55.5 124 34.5 140.5 12q88 0 156-18t114.5-52 70.5-84 24-115q0-60-20-113t-57-96-90-74.5-119.5-50-145.5-22.5zm-244-393q-43 0-76.5 16.5t-56 38.5-33.5 37q-11 17-10 31t17 25q18 11 30.5 7.5t26.5-18.5q15-15 30-27t33.5-19 41.5-7q39 0 56.5 30.5t17.5 96.5v605q0 14 11 20.5t32 6.5q22 0 33-6.5t11-20.5v-611q0-62-17.5-108.5t-54-71.5-92.5-25z"/><path transform="translate(12.768 19.754) scale(.014 -.014)" d="m194-17q-52 0-75.5 27t-23.5 76v889q0 13 10.5 19.5t31.5 6.5q22 0 33-6.5t11-19.5v-879q0-20 9-29t22-9q11 0 18.5 3t14.5 8.5 14 10.5q8 6 17 3.5t18-13.5q5-7 7.5-17t-2.5-18q-11-17-28.5-28.5t-37.5-17.5-39-6z"/><path transform="translate(16.954 19.754) scale(.014 -.014)" d="m258-17q-57 0-101 27.5t-69 83.5-25 141q0 52 9.5 96t28.5 79 46 59 62 37 77 13q32 0 66-10.5t64-27.5v5q0 15 11 22t33 7 32.5-6.5 10.5-20.5v-392q0-13 4-21.5t11-12.5 16-4q10 0 16.5 2.5t13 7.5 15.5 12q7 6 16 3.5t18-10.5q9-10 10-21t-4-19q-11-16-28-27t-36.5-17-39.5-6q-23 0-40 5t-29 15.5-18.5 25.5-9.5 34q0 1-1 4.5t-1 7.5q-23-37-49.5-57t-54.5-27.5-54-7.5zm-107 256q0-55 13-94.5t39.5-60.5 66.5-21q29 0 55.5 10t49.5 33 41 60v242q-31 19-60 25.5t-61 6.5q-26 0-48-8t-40-24-30.5-40-19-56-6.5-73z"/><path transform="translate(25.662 19.754) scale(.014 -.014)" d="m492-5q16 10 32 20t31 18.5 28 15 24 11.5q15 7 26 0.5t15.5-20 1-27-18.5-20.5q-13-7-29.5-16t-34-20-35.5-22-35-21zm-169-500q-47 0-81 16.5t-52.5 48-18.5 76.5q0 33 10 66.5t31 67.5 53 67.5 75 65.5q24 16 47.5 32t47.5 31v111q-13-22-30.5-39.5t-38.5-29.5-45.5-18.5-51.5-6.5q-58 0-97 20.5t-58.5 61-19.5 101.5v323q0 13 10.5 19.5t31.5 6.5q22 0 33-6.5t11-19.5v-323q0-35 11-59t33.5-36 55.5-12q28 0 52 9t43.5 24.5 34.5 37.5 25 47v312q0 13 10.5 19.5t32.5 6.5q21 0 32-6.5t11-19.5v-732q0-62-14-111t-40-82.5-62.5-51-81.5-17.5zm5 77q25 0 45 12.5t34 36 21 58.5 7 81v117q-20-12-39.5-24t-39.5-26q-23-19-41-41t-30.5-46-18.5-48.5-6-48.5q0-22 7.5-38t22.5-24.5 38-8.5z"/><path transform="translate(34.622 19.754) scale(.014 -.014)" d="m248-17q-36 0-64.5 11.5t-48.5 34.5-30.5 57-10.5 80v323q0 13 10.5 19.5t32.5 6.5q21 0 32-6.5t11-19.5v-323q0-35 8.5-59t27-36 47.5-12q26 0 46 9t35 24.5 26 37 18 46.5v313q0 12 10.5 19t31.5 7q24 0 34-7t10-19v-278q0-46 4-75t13.5-45.5 26-23 40.5-6.5q20 0 39.5 6t37 19.5 31 35.5 21.5 52.5 8 71.5q0 38-5.5 75t-17 72.5-30.5 67.5q-11 18-6 31t19 20 29 7q14 0 21-6t14-18q15-23 29.5-59.5t24.5-82.5 10-98q0-42-10-82.5t-29-75-47.5-60.5-65.5-41-83-15q-33 0-61 10.5t-48.5 33-33.5 56.5q-16-30-40-52t-53.5-34-63.5-12z"/><path transform="translate(46.62 19.754) scale(.014 -.014)" d="m161-15q-21 0-31.5 6.5t-10.5 19.5v358q0 42-13 56.5t-36 14.5q-17 0-28.5-9t-18-26-8.5-40q-1-16-9-23.5t-26-7.5q-16 0-26 7t-9 33q2 43 17.5 74.5t43 49 64.5 17.5q27 0 49-6t38-19 26.5-32 15.5-45l1-5q11 26 26 46.5t32 35 35.5 22 36.5 7.5q14 0 24.5-7t10.5-31q0-28 5.5-47t16-28.5 24.5-9.5q25 0 52 23t52 51q9 10 20 7.5t20.5-12.5 12.5-21.5-4-19.5q-33-40-73-68t-80-28q-27 0-50.5 12t-39 36-20.5 58q-15-6-28.5-19t-26-31.5-23-42-18.5-49.5v-281q0-13-11-19.5t-33-6.5z"/><path transform="translate(54.334 19.754) scale(.014 -.014)" d="m193-17q-52 0-75.5 27t-23.5 76v403q0 13 10.5 19.5t31.5 6.5q22 0 33-6.5t11-19.5v-393q0-20 9-29t22-9q11 0 18.5 3.5t14 8.5 14.5 11q6 5 16.5 1t16.5-12q8-9 9-19t-5-18q-11-16-27.5-27t-36-17-38.5-6zm-55 686q-28 0-42.5 15.5t-14.5 46.5q0 32 14.5 48t42.5 16q27 0 41-16t14-48q1-31-13.5-46.5t-41.5-15.5z"/><path transform="translate(58.534 19.754) scale(.014 -.014)" d="m243-17q-42 0-69.5 15.5t-41 44-13.5 68.5v309h-78q-15 0-21 9t-6 31q0 23 6 31.5t21 8.5h78v204q0 13 10.5 19.5t31.5 6.5q22 0 33-6.5t11-19.5v-204h126q15 0 21.5-8.5t6.5-31.5q0-22-6.5-31t-21.5-9h-126v-299q0-34 9.5-48.5t34.5-14.5q23 0 39.5 11t34.5 27q12 11 22.5 7.5t19.5-12.5q11-10 11.5-20.5t-5.5-19.5q-17-25-38-40t-44-21.5-46-6.5z"/><path transform="translate(63.966 19.754) scale(.014 -.014)" d="m300-17q-40 0-77.5 17t-69 48-55 73.5-36.5 93-13 106.5q0 34 8 64.5t23 55 36 42 47 27 56 9.5q57 0 92.5-23t51.5-60.5 16-80.5q0-34-12.5-70t-34.5-70.5-51-66.5q-43-48-98-85.5t-116.5-58.5-126.5-21q-14 0-21 11.5t-5.5 26 12.5 26 33 11.5q46 0 94.5 18t92.5 48 75 65q22 25 37.5 51.5t23.5 53.5 8 52q0 53-20 73.5t-54 20.5q-17 0-31.5-7.5t-25.5-23-17-37.5-6-51q0-57 16.5-104.5t43.5-81.5 57.5-53 57.5-19q19 0 37 7.5t37.5 22.5 39.5 37q14 16 27 15.5t27-11.5 16.5-23-6.5-26q-25-38-58.5-60.5t-67.5-32-63-9.5z"/><path transform="translate(74.382 19.754) scale(.014 -.014)" d="m448 376q-17-1-25.5 10.5t-8.5 27.5 6 26 21 11q65 3 118.5 17t96 39 72 59 45 76 15.5 90q0 47-19.5 82.5t-56.5 59-88.5 35-115.5 11.5q-84 0-154-16t-126.5-48.5-101.5-80.5q-12-14-25.5-16t-28.5 9q-16 13-18 26.5t10 27.5q35 44 82 77t104.5 55.5 124 34.5 140.5 12q88 0 156-18t114.5-52 70.5-84 24-115q0-60-20-113t-57-96-90-74.5-119.5-50-145.5-22.5zm-244-393q-43 0-76.5 16.5t-56 38.5-33.5 37q-11 17-10 31t17 25q18 11 30.5 7.5t26.5-18.5q15-15 30-27t33.5-19 41.5-7q39 0 56.5 30.5t17.5 96.5v605q0 14 11 20.5t32 6.5q22 0 33-6.5t11-20.5v-611q0-62-17.5-108.5t-54-71.5-92.5-25z"/><path transform="translate(87.15 19.754) scale(.014 -.014)" d="m148-21q-40 0-70.5 12.5t-47.5 37.5-17 60q0 37 16.5 65.5t46 44.5 67.5 16q37 0 68-10.5t59-26.5 56.5-34 60.5-34 69.5-26 85.5-10q54 0 95.5 19t69.5 49 40 64q7 17 19 22.5t31-0.5q17-4 22.5-15t0.5-31q-15-55-55-98.5t-96.5-68.5-123.5-25q-70 0-120.5 15t-88 36.5-69 43-62 36.5-67.5 15q-21 0-31.5-11.5t-10.5-28.5q0-18 14.5-29t33.5-11q41 0 64.5 36.5t23.5 95.5v538q0 67 16 118.5t47.5 86 78 52.5 107.5 18q57 0 101.5-18.5t75.5-55.5 47-95q7-23 2-35.5t-24-18.5q-23-7-35-0.5t-19 27.5q-12 35-31.5 60.5t-49 39-69.5 13.5q-39 0-69-11.5t-50-34.5-30.5-59.5-10.5-86.5v-538q0-64-21-111t-59-72.5-91-25.5z"/></svg>

<?xml version="1.0" encoding="utf-8" ?>
<svg baseProfile="tiny" height="100%" version="1.2" width="100%" xmlns="http://www.w3.org/2000/svg" xmlns:ev="http://www.w3.org/2001/xml-events" xmlns:xlink="http://www.w3.org/1999/xlink"><defs /><g><path d="M448 376Q431 375 422.5 386.5Q414 398 414 414Q414 430 420.0 440.0Q426 450 441 451Q506 454 559.5 468.0Q613 482 655.5 507.0Q698 532 727.5 566.0Q757 600 772.5 642.0Q788 684 788 732Q788 779 768.5 814.5Q749 850 712.0 873.5Q675 897 623.5 908.5Q572 920 508 920Q424 920 354.0 904.0Q284 888 227.5 855.5Q171 823 126 775Q114 761 100.5 759.0Q87 757 72 768Q56 781 54.0 794.5Q52 808 64 822Q99 866 146.0 899.0Q193 932 250.5 954.5Q308 977 374.5 989.0Q441 1001 515 1001Q603 1001 671.0 983.0Q739 965 785.5 931.0Q832 897 856.0 847.0Q880 797 880 732Q880 672 860.0 619.0Q840 566 803.0 523.0Q766 480 713.0 448.5Q660 417 593.5 398.5Q527 380 448 376ZM204 -17Q161 -17 127.5 -0.5Q94 16 71.5 38.0Q49 60 38 75Q27 92 28.0 106.0Q29 120 45 131Q63 142 75.5 138.5Q88 135 102 120Q117 105 132.0 93.0Q147 81 165.5 74.0Q184 67 207 67Q246 67 263.5 97.5Q281 128 281 194V799Q281 813 292.0 819.5Q303 826 324 826Q346 826 357.0 819.5Q368 813 368 799V188Q368 126 350.5 79.5Q333 33 296.5 8.0Q260 -17 204 -17Z" transform="translate(0.0, 72) scale(0.072, -0.072)" /><path d="M194 -17Q142 -17 118.5 10.0Q95 37 95 86V975Q95 988 105.5 994.5Q116 1001 137 1001Q159 1001 170.0 994.5Q181 988 181 975V96Q181 76 190.0 67.0Q199 58 212 58Q223 58 230.5 61.0Q238 64 245.0 69.5Q252 75 259 80Q267 86 276.0 83.5Q285 81 294 70Q299 63 301.5 53.0Q304 43 299 35Q288 18 270.5 6.5Q253 -5 233.0 -11.0Q213 -17 194 -17Z" transform="translate(65.664, 72) scale(0.072, -0.072)" /><path d="M258 -17Q201 -17 157.0 10.5Q113 38 88.0 94.0Q63 150 63 235Q63 287 72.5 331.0Q82 375 101.0 410.0Q120 445 147.0 469.0Q174 493 209.0 506.0Q244 519 286 519Q318 519 352.0 508.5Q386 498 416 481V486Q416 501 427.0 508.0Q438 515 460 515Q482 515 492.5 508.5Q503 502 503 488V96Q503 83 507.0 74.5Q511 66 518.0 62.0Q525 58 534 58Q544 58 550.5 60.5Q557 63 563.5 68.0Q570 73 579 80Q586 86 595.0 83.5Q604 81 613 73Q622 63 623.0 52.0Q624 41 619 33Q608 17 591.0 6.0Q574 -5 554.5 -11.0Q535 -17 515 -17Q492 -17 475.0 -12.0Q458 -7 446.0 3.5Q434 14 427.5 29.0Q421 44 418 63Q418 64 417.0 67.5Q416 71 416 75Q393 38 366.5 18.0Q340 -2 312.0 -9.5Q284 -17 258 -17ZM151 239Q151 184 164.0 144.5Q177 105 203.5 84.0Q230 63 270 63Q299 63 325.5 73.0Q352 83 375.0 106.0Q398 129 416 166V408Q385 427 356.0 433.5Q327 440 295 440Q269 440 247.0 432.0Q225 424 207.0 408.0Q189 392 176.5 368.0Q164 344 157.5 312.0Q151 280 151 239Z" transform="translate(87.19200000000001, 72) scale(0.072, -0.072)" /><path d="M492 -5Q508 5 524.0 15.0Q540 25 555.0 33.5Q570 42 583.0 48.5Q596 55 607 60Q622 67 633.0 60.5Q644 54 648.5 40.5Q653 27 649.5 13.5Q646 0 631 -7Q618 -14 601.5 -23.0Q585 -32 567.5 -43.0Q550 -54 532.0 -65.0Q514 -76 497 -86ZM323 -505Q276 -505 242.0 -488.5Q208 -472 189.5 -440.5Q171 -409 171 -364Q171 -331 181.0 -297.5Q191 -264 212.0 -230.0Q233 -196 265.0 -162.5Q297 -129 340 -97Q364 -81 387.5 -65.0Q411 -49 435 -34V77Q422 55 404.5 37.5Q387 20 366.0 8.0Q345 -4 320.5 -10.5Q296 -17 269 -17Q211 -17 172.0 3.5Q133 24 113.5 64.5Q94 105 94 166V489Q94 502 104.5 508.5Q115 515 136 515Q158 515 169.0 508.5Q180 502 180 489V166Q180 131 191.0 107.0Q202 83 224.5 71.0Q247 59 280 59Q308 59 332.0 68.0Q356 77 375.5 92.5Q395 108 410.0 130.0Q425 152 435 177V489Q435 502 445.5 508.5Q456 515 478 515Q499 515 510.0 508.5Q521 502 521 489V-243Q521 -305 507.0 -354.0Q493 -403 467.0 -436.5Q441 -470 404.5 -487.5Q368 -505 323 -505ZM328 -428Q353 -428 373.0 -415.5Q393 -403 407.0 -379.5Q421 -356 428.0 -321.0Q435 -286 435 -240V-123Q415 -135 395.5 -147.0Q376 -159 356 -173Q333 -192 315.0 -214.0Q297 -236 284.5 -260.0Q272 -284 266.0 -308.5Q260 -333 260 -357Q260 -379 267.5 -395.0Q275 -411 290.0 -419.5Q305 -428 328 -428Z" transform="translate(131.976, 72) scale(0.072, -0.072)" /><path d="M248 -17Q212 -17 183.5 -5.5Q155 6 135.0 29.0Q115 52 104.5 86.0Q94 120 94 166V489Q94 502 104.5 508.5Q115 515 137 515Q158 515 169.0 508.5Q180 502 180 489V166Q180 131 188.5 107.0Q197 83 215.5 71.0Q234 59 263 59Q289 59 309.0 68.0Q329 77 344.0 92.5Q359 108 370.0 129.5Q381 151 388 176V489Q388 501 398.5 508.0Q409 515 430 515Q454 515 464.0 508.0Q474 501 474 489V211Q474 165 478.0 136.0Q482 107 491.5 90.5Q501 74 517.5 67.5Q534 61 558 61Q578 61 597.5 67.0Q617 73 634.5 86.5Q652 100 665.5 122.0Q679 144 687.0 174.5Q695 205 695 246Q695 284 689.5 321.0Q684 358 672.5 393.5Q661 429 642 461Q631 479 636.0 492.0Q641 505 655.0 512.0Q669 519 684 519Q698 519 705.0 513.0Q712 507 719 495Q734 472 748.5 435.5Q763 399 773.0 353.0Q783 307 783 255Q783 213 773.0 172.5Q763 132 744.0 97.5Q725 63 696.5 37.0Q668 11 631.0 -4.0Q594 -19 548 -19Q515 -19 487.0 -8.5Q459 2 438.5 24.5Q418 47 405 81Q389 51 365.0 29.0Q341 7 311.5 -5.0Q282 -17 248 -17Z" transform="translate(178.05599999999998, 72) scale(0.072, -0.072)" /><path d="M161 -15Q140 -15 129.5 -8.5Q119 -2 119 11V369Q119 411 106.0 425.5Q93 440 70 440Q53 440 41.5 431.0Q30 422 23.5 405.0Q17 388 15 365Q14 349 6.0 341.5Q-2 334 -20 334Q-36 334 -46.0 341.0Q-56 348 -55 374Q-53 417 -37.5 448.5Q-22 480 5.5 497.5Q33 515 70 515Q97 515 119.0 509.0Q141 503 157.0 490.0Q173 477 183.5 458.0Q194 439 199 413L200 408Q211 434 226.0 454.5Q241 475 258.0 489.5Q275 504 293.5 511.5Q312 519 330 519Q344 519 354.5 512.0Q365 505 365 481Q365 453 370.5 434.0Q376 415 386.5 405.5Q397 396 411 396Q436 396 463.0 419.0Q490 442 515 470Q524 480 535.0 477.5Q546 475 555.5 465.0Q565 455 568.0 443.5Q571 432 564 424Q531 384 491.0 356.0Q451 328 411 328Q384 328 360.5 340.0Q337 352 321.5 376.0Q306 400 301 434Q286 428 272.5 415.0Q259 402 246.5 383.5Q234 365 223.5 341.5Q213 318 205 292V11Q205 -2 194.0 -8.5Q183 -15 161 -15Z" transform="translate(239.76, 72) scale(0.072, -0.072)" /><path d="M193 -17Q141 -17 117.5 10.0Q94 37 94 86V489Q94 502 104.5 508.5Q115 515 136 515Q158 515 169.0 508.5Q180 502 180 489V96Q180 76 189.0 67.0Q198 58 211 58Q222 58 229.5 61.5Q237 65 243.5 70.0Q250 75 258 81Q264 86 274.5 82.0Q285 78 291 70Q299 61 300.0 51.0Q301 41 295 33Q284 17 267.5 6.0Q251 -5 231.5 -11.0Q212 -17 193 -17ZM138 669Q110 669 95.5 684.5Q81 700 81 731Q81 763 95.5 779.0Q110 795 138 795Q165 795 179.0 779.0Q193 763 193 731Q194 700 179.5 684.5Q165 669 138 669Z" transform="translate(279.432, 72) scale(0.072, -0.072)" /><path d="M243 -17Q201 -17 173.5 -1.5Q146 14 132.5 42.5Q119 71 119 111V420H41Q26 420 20.0 429.0Q14 438 14 460Q14 483 20.0 491.5Q26 500 41 500H119V704Q119 717 129.5 723.5Q140 730 161 730Q183 730 194.0 723.5Q205 717 205 704V500H331Q346 500 352.5 491.5Q359 483 359 460Q359 438 352.5 429.0Q346 420 331 420H205V121Q205 87 214.5 72.5Q224 58 249 58Q272 58 288.5 69.0Q305 80 323 96Q335 107 345.5 103.5Q356 100 365 91Q376 81 376.5 70.5Q377 60 371 51Q354 26 333.0 11.0Q312 -4 289.0 -10.5Q266 -17 243 -17Z" transform="translate(301.03200000000004, 72) scale(0.072, -0.072)" /><path d="M300 -17Q260 -17 222.5 0.0Q185 17 153.5 48.0Q122 79 98.5 121.5Q75 164 62.0 214.5Q49 265 49 321Q49 355 57.0 385.5Q65 416 80.0 440.5Q95 465 116.0 482.5Q137 500 163.0 509.5Q189 519 219 519Q276 519 311.5 496.0Q347 473 363.0 435.5Q379 398 379 355Q379 321 366.5 285.0Q354 249 332.0 214.5Q310 180 281 148Q238 100 183.0 62.5Q128 25 66.5 4.0Q5 -17 -60 -17Q-74 -17 -81.0 -5.5Q-88 6 -86.5 20.5Q-85 35 -74.0 46.5Q-63 58 -41 58Q5 58 53.5 76.0Q102 94 146.0 124.0Q190 154 221 189Q243 214 258.5 240.5Q274 267 282.0 294.0Q290 321 290 346Q290 399 270.0 419.5Q250 440 216 440Q199 440 184.5 432.5Q170 425 159.0 409.5Q148 394 142.0 372.0Q136 350 136 321Q136 264 152.5 216.5Q169 169 196.0 135.0Q223 101 253.5 82.0Q284 63 311 63Q330 63 348.0 70.5Q366 78 385.5 93.0Q405 108 425 130Q439 146 452.0 145.5Q465 145 479 134Q493 123 495.5 111.0Q498 99 489 85Q464 47 430.5 24.5Q397 2 363.0 -7.5Q329 -17 300 -17Z" transform="translate(328.968, 72) scale(0.072, -0.072)" /><path d="M448 376Q431 375 422.5 386.5Q414 398 414 414Q414 430 420.0 440.0Q426 450 441 451Q506 454 559.5 468.0Q613 482 655.5 507.0Q698 532 727.5 566.0Q757 600 772.5 642.0Q788 684 788 732Q788 779 768.5 814.5Q749 850 712.0 873.5Q675 897 623.5 908.5Q572 920 508 920Q424 920 354.0 904.0Q284 888 227.5 855.5Q171 823 126 775Q114 761 100.5 759.0Q87 757 72 768Q56 781 54.0 794.5Q52 808 64 822Q99 866 146.0 899.0Q193 932 250.5 954.5Q308 977 374.5 989.0Q441 1001 515 1001Q603 1001 671.0 983.0Q739 965 785.5 931.0Q832 897 856.0 847.0Q880 797 880 732Q880 672 860.0 619.0Q840 566 803.0 523.0Q766 480 713.0 448.5Q660 417 593.5 398.5Q527 380 448 376ZM204 -17Q161 -17 127.5 -0.5Q94 16 71.5 38.0Q49 60 38 75Q27 92 28.0 106.0Q29 120 45 131Q63 142 75.5 138.5Q88 135 102 120Q117 105 132.0 93.0Q147 81 165.5 74.0Q184 67 207 67Q246 67 263.5 97.5Q281 128 281 194V799Q281 813 292.0 819.5Q303 826 324 826Q346 826 357.0 819.5Q368 813 368 799V188Q368 126 350.5 79.5Q333 33 296.5 8.0Q260 -17 204 -17Z" transform="translate(382.53600000000006, 72) scale(0.072, -0.072)" /><path d="M148 -21Q108 -21 77.5 -8.5Q47 4 30.0 29.0Q13 54 13 89Q13 126 29.5 154.5Q46 183 75.5 199.0Q105 215 143 215Q180 215 211.0 204.5Q242 194 270.0 178.0Q298 162 326.5 144.0Q355 126 387.0 110.0Q419 94 456.5 84.0Q494 74 542 74Q596 74 637.5 93.0Q679 112 707.0 142.0Q735 172 747 206Q754 223 766.0 228.5Q778 234 797 228Q814 224 819.5 213.0Q825 202 820 182Q805 127 765.0 83.5Q725 40 668.5 15.0Q612 -10 545 -10Q475 -10 424.5 5.0Q374 20 336.5 41.5Q299 63 267.5 84.5Q236 106 205.5 121.0Q175 136 138 136Q117 136 106.5 124.5Q96 113 96 96Q96 78 110.5 67.0Q125 56 144 56Q185 56 208.5 92.5Q232 129 232 188V726Q232 793 248.0 844.5Q264 896 295.5 930.5Q327 965 373.5 983.0Q420 1001 481 1001Q538 1001 582.5 982.5Q627 964 658.0 927.0Q689 890 705 832Q712 809 707.0 796.5Q702 784 683 778Q660 771 648.0 777.5Q636 784 629 805Q617 840 597.5 865.5Q578 891 548.5 904.5Q519 918 479 918Q440 918 410.0 906.5Q380 895 360.0 872.0Q340 849 329.5 812.5Q319 776 319 726V188Q319 124 298.0 77.0Q277 30 239.0 4.5Q201 -21 148 -21Z" transform="translate(448.20000000000005, 72) scale(0.072, -0.072)" /></g></svg>
